symbols/web/30fps_select/materialsymbolsrounded/30fps_select_wght600_20px.svg

<svg xmlns="http://www.w3.org/2000/svg" height="20" width="20"><path d="M4.146 11.833q-.438 0-.74-.302t-.302-.739q0-.438.302-.74t.74-.302h2.958V8.479H4.042q-.375 0-.657-.291-.281-.292-.281-.688 0-.396.281-.687.282-.292.657-.292h3.062V5.25H4.146q-.438 0-.74-.302t-.302-.74q0-.437.302-.739t.74-.302h2.958q.917 0 1.521.593.604.594.604 1.49v.979q0 .5-.281.834-.281.333-.76.437.479.104.76.417.281.312.281.833v1q0 .896-.604 1.49-.604.593-1.521.593Zm11 0h-2.25q-.917 0-1.521-.593-.604-.594-.604-1.49v-4.5q0-.896.604-1.49.604-.593 1.521-.593h2.25q.916 0 1.521.593.604.594.604 1.49v4.5q0 .896-.604 1.49-.605.593-1.521.593Zm0-2.083v-4.5h-2.25v4.5ZM2.833 18.333q-.395 0-.687-.291-.292-.292-.292-.667v-2.25q0-.375.292-.667.292-.291.687-.291.396 0 .688.291.291.292.291.667v2.25q0 .375-.291.667-.292.291-.688.291Zm3.667 0q-.375 0-.656-.291-.282-.292-.282-.667v-2.25q0-.375.282-.667.281-.291.656-.291.396 0 .688.291.291.292.291.667v2.25q0 .375-.291.667-.292.291-.688.291Zm3.708 0q-.396 0-.687-.291-.292-.292-.292-.667v-2.25q0-.375.292-.667.291-.291.687-.291.375 0 .657.291.281.292.281.667v2.25q0 .375-.281.667-.282.291-.657.291Zm3.834 0q-.459 0-.802-.343-.344-.344-.344-.802v-1.876q0-.458.344-.802.343-.343.802-.343H17q.458 0 .802.343.344.344.344.802v1.876q0 .458-.344.802-.344.343-.802.343Z"/></svg>

<svg xmlns="http://www.w3.org/2000/svg" height="20" width="20"><path d="M4.146 11.833Q3.708 11.833 3.406 11.531Q3.104 11.229 3.104 10.792Q3.104 10.354 3.406 10.052Q3.708 9.75 4.146 9.75H7.104Q7.104 9.75 7.104 9.75Q7.104 9.75 7.104 9.75V8.479Q7.104 8.479 7.104 8.479Q7.104 8.479 7.104 8.479H4.042Q3.667 8.479 3.385 8.188Q3.104 7.896 3.104 7.5Q3.104 7.104 3.385 6.813Q3.667 6.521 4.042 6.521H7.104Q7.104 6.521 7.104 6.521Q7.104 6.521 7.104 6.521V5.25Q7.104 5.25 7.104 5.25Q7.104 5.25 7.104 5.25H4.146Q3.708 5.25 3.406 4.948Q3.104 4.646 3.104 4.208Q3.104 3.771 3.406 3.469Q3.708 3.167 4.146 3.167H7.104Q8.021 3.167 8.625 3.76Q9.229 4.354 9.229 5.25V6.229Q9.229 6.729 8.948 7.063Q8.667 7.396 8.188 7.5Q8.667 7.604 8.948 7.917Q9.229 8.229 9.229 8.75V9.75Q9.229 10.646 8.625 11.24Q8.021 11.833 7.104 11.833ZM15.146 11.833H12.896Q11.979 11.833 11.375 11.24Q10.771 10.646 10.771 9.75V5.25Q10.771 4.354 11.375 3.76Q11.979 3.167 12.896 3.167H15.146Q16.062 3.167 16.667 3.76Q17.271 4.354 17.271 5.25V9.75Q17.271 10.646 16.667 11.24Q16.062 11.833 15.146 11.833ZM15.146 9.75Q15.146 9.75 15.146 9.75Q15.146 9.75 15.146 9.75V5.25Q15.146 5.25 15.146 5.25Q15.146 5.25 15.146 5.25H12.896Q12.896 5.25 12.896 5.25Q12.896 5.25 12.896 5.25V9.75Q12.896 9.75 12.896 9.75Q12.896 9.75 12.896 9.75ZM2.833 18.333Q2.438 18.333 2.146 18.042Q1.854 17.75 1.854 17.375V15.125Q1.854 14.75 2.146 14.458Q2.438 14.167 2.833 14.167Q3.229 14.167 3.521 14.458Q3.812 14.75 3.812 15.125V17.375Q3.812 17.75 3.521 18.042Q3.229 18.333 2.833 18.333ZM6.5 18.333Q6.125 18.333 5.844 18.042Q5.562 17.75 5.562 17.375V15.125Q5.562 14.75 5.844 14.458Q6.125 14.167 6.5 14.167Q6.896 14.167 7.188 14.458Q7.479 14.75 7.479 15.125V17.375Q7.479 17.75 7.188 18.042Q6.896 18.333 6.5 18.333ZM10.208 18.333Q9.812 18.333 9.521 18.042Q9.229 17.75 9.229 17.375V15.125Q9.229 14.75 9.521 14.458Q9.812 14.167 10.208 14.167Q10.583 14.167 10.865 14.458Q11.146 14.75 11.146 15.125V17.375Q11.146 17.75 10.865 18.042Q10.583 18.333 10.208 18.333ZM14.042 18.333Q13.583 18.333 13.24 17.99Q12.896 17.646 12.896 17.188V15.312Q12.896 14.854 13.24 14.51Q13.583 14.167 14.042 14.167H17Q17.458 14.167 17.802 14.51Q18.146 14.854 18.146 15.312V17.188Q18.146 17.646 17.802 17.99Q17.458 18.333 17 18.333Z"/></svg>
